icon/cg/extension.svg

<svg width="24" height="24" fill="none" xmlns="http://www.w3.org/2000/svg"><path fill-rule="evenodd" clip-rule="evenodd" d="M13 3h8v8h-8V3Zm2 2h4v4h-4V5Z" fill="currentColor"/><path fill-rule="evenodd" clip-rule="evenodd" d="M17 21v-8h-6V7H3v14h14ZM9 9H5v4h4V9ZM5 19v-4h4v4H5Zm6 0v-4h4v4h-4Z" fill="currentColor"/></svg>

<svg viewBox="0 0 24 24" fill="none" xmlns="http://www.w3.org/2000/svg" height="1em" width="1em">
  <path fill-rule="evenodd" clip-rule="evenodd" d="M13 3H21V11H13V3ZM15 5H19V9H15V5Z" fill="currentColor"/>
  <path fill-rule="evenodd" clip-rule="evenodd" d="M17 21V13H11V7H3V21H17ZM9 9H5V13H9V9ZM5 19L5 15H9V19H5ZM11 19V15H15V19H11Z" fill="currentColor"/>
</svg>
